packages/ffe-icons/icons/filled/sm/mobile_off.svg

<svg xmlns="http://www.w3.org/2000/svg" height="20" viewBox="0 -960 960 960" width="20"><path d="M790.847-85.846 80.231-796.463q-8.308-8.307-8-17.884.308-9.577 9-18.269 8.692-8.692 18.076-8.692t18.077 8.692L828-121.999q8.307 8.307 8.5 17.884.192 9.576-8.5 18.269-8.692 8.692-18.576 8.692-9.885 0-18.577-8.692ZM212.001-696.23 264-644.231v414.232h418.539l60.46 60.459v47.231q0 22.923-17.693 38.615Q707.614-68 683.691-68H276.309q-26.923 0-45.615-18.693-18.693-18.692-18.693-45.615V-696.23ZM696-379.693v-350.308H329.305q-12.847 0-23.539-5.769-10.692-5.769-17.461-17.539l-58.997-73.229q-12.153-21.384 2.385-43.423 14.539-22.038 44.616-22.038h407.382q26.308 0 45.308 19t19 45.308v447.998q0 10.769-7.616 18.384-7.615 7.615-18.384 7.615t-18.384-7.615Q696-368.924 696-379.693Z"/></svg>

<svg xmlns="http://www.w3.org/2000/svg" height="20" viewBox="0 -960 960 960" width="20"><path d="M790.85-85.85 80.23-796.46q-8.31-8.31-8-17.89.31-9.57 9-18.27 8.69-8.69 18.08-8.69 9.38 0 18.07 8.69L828-122q8.31 8.31 8.5 17.88.19 9.58-8.5 18.27-8.69 8.7-18.58 8.7-9.88 0-18.57-8.7ZM212-696.23l52 52V-230h418.54L743-169.54v47.23q0 22.92-17.69 38.62Q707.61-68 683.69-68H276.31q-26.92 0-45.62-18.69Q212-105.39 212-132.31v-563.92Zm484 316.54V-730H329.3q-12.84 0-23.53-5.77-10.7-5.77-17.46-17.54l-59-73.23q-12.16-21.38 2.38-43.42Q246.23-892 276.31-892h407.38Q710-892 729-873q19 19 19 45.31v448q0 10.77-7.62 18.38-7.61 7.62-18.38 7.62t-18.38-7.62q-7.62-7.61-7.62-18.38Z"/></svg>
